X:197
T:Calder Fair,3voices. JGi.197
M:2/4
L:1/16
Q:1/4=80
S:Joshua Gibbons MS,1823,Tealby,Lincs.
N:See also “Cowider fair”. JGi.193
R:quick step
O:Tealby,Lincolnshire
Z:VMP/R.Greig, 2009
K:F
[V:1]|:fedc f2A2|c2c=B c2c2|fedc f2A2|Add^cd4:|
[V:2]|:AGFG A2A2|EGEG E2E2|AGFG A2A2|D2D2 D4:|
[V:3]|:F,4F,4|C2C,2 C2C,2|F,4F,4|A,2D2D,4:|
[V:1]|:cfff f2f2|cggg g2g2|agfe fedc|defgf4:|
[V:2]|:AAAA A2A2|ceee e2e2|fedc dcBA|FAGB A4:|
[V:3]|:F,2F,,2 F,2F,,2|G,2G,,2 G,2G,,2|F,2F,2 F,,2F,,2|F,2C,2F,,4:|

